packages/icons/raw/imported/ChatCommentText.svg

<svg width="32" height="32" viewBox="0 0 32 32" fill="none" xmlns="http://www.w3.org/2000/svg">
<path d="M6.80005 10.5H7.30005H6.80005ZM6.80005 23.5568H6.30005H6.80005ZM25.0963 10.5H24.5963H25.0963ZM25.0963 17.9815H25.5963H25.0963ZM21.0964 6.50002L21.0964 6.00002L21.0964 6.50002ZM10.8001 6.5L10.8001 6L10.8001 6.5ZM11.726 21.9815V21.4815H11.5657L11.4354 21.5746L11.726 21.9815ZM8.38129 24.3705L8.67191 24.7774H8.67191L8.38129 24.3705ZM21.0963 21.9815V21.4815V21.9815ZM20.1704 12.6296C20.4466 12.6296 20.6704 12.4058 20.6704 12.1296C20.6704 11.8535 20.4466 11.6296 20.1704 11.6296V12.6296ZM11.726 11.6296C11.4498 11.6296 11.226 11.8535 11.226 12.1296C11.226 12.4058 11.4498 12.6296 11.726 12.6296V11.6296ZM17.3556 16.8518C17.6317 16.8518 17.8556 16.628 17.8556 16.3518C17.8556 16.0757 17.6317 15.8518 17.3556 15.8518V16.8518ZM11.726 15.8518C11.4498 15.8518 11.226 16.0757 11.226 16.3518C11.226 16.628 11.4498 16.8518 11.726 16.8518V15.8518ZM6.30005 10.5L6.30005 23.5568H7.30005L7.30005 10.5H6.30005ZM24.5963 10.5V17.9815H25.5963V10.5H24.5963ZM21.0964 6.00002L10.8001 6L10.8001 7L21.0963 7.00002L21.0964 6.00002ZM11.4354 21.5746L8.09067 23.9637L8.67191 24.7774L12.0166 22.3883L11.4354 21.5746ZM21.0963 21.4815L11.726 21.4815V22.4815L21.0963 22.4815V21.4815ZM25.5963 10.5C25.5963 8.01474 23.5816 6.00003 21.0964 6.00002L21.0963 7.00002C23.0293 7.00002 24.5963 8.56703 24.5963 10.5H25.5963ZM7.30005 10.5C7.30005 8.567 8.86706 7 10.8001 7L10.8001 6C8.31478 5.99999 6.30005 8.01471 6.30005 10.5H7.30005ZM6.30005 23.5568C6.30005 24.7769 7.67911 25.4865 8.67191 24.7774L8.09067 23.9637C7.75973 24.2 7.30005 23.9635 7.30005 23.5568H6.30005ZM24.5963 17.9815C24.5963 19.9145 23.0293 21.4815 21.0963 21.4815V22.4815C23.5816 22.4815 25.5963 20.4668 25.5963 17.9815H24.5963ZM20.1704 11.6296L11.726 11.6296V12.6296L20.1704 12.6296V11.6296ZM17.3556 15.8518H11.726V16.8518H17.3556V15.8518Z" fill="black"/>
</svg>

<svg width="32" height="32" fill="none" xmlns="http://www.w3.org/2000/svg"><path d="M6.8 10.5h.5-.5Zm0 13.057h-.5.5ZM25.096 10.5h-.5.5Zm0 7.482h.5-.5Zm-4-11.482V6v.5ZM10.8 6.5V6v.5Zm.926 15.482v-.5h-.16l-.13.093.29.407ZM8.381 24.37l.29.406-.29-.407Zm12.715-2.39v-.5.5Zm-.926-9.351a.5.5 0 1 0 0-1v1Zm-8.444-1a.5.5 0 1 0 0 1v-1Zm5.63 5.222a.5.5 0 1 0 0-1v1Zm-5.63-1a.5.5 0 1 0 0 1v-1ZM6.3 10.5v13.057h1V10.5h-1Zm18.296 0v7.482h1V10.5h-1Zm-3.5-4.5H10.8v1h10.296V6Zm-9.66 15.575L8.09 23.964l.58.813 3.346-2.389-.582-.813Zm9.66-.093h-9.37v1h9.37v-1Zm4.5-10.982a4.5 4.5 0 0 0-4.5-4.5v1a3.5 3.5 0 0 1 3.5 3.5h1ZM7.3 10.5A3.5 3.5 0 0 1 10.8 7V6a4.5 4.5 0 0 0-4.5 4.5h1Zm-1 13.057c0 1.22 1.38 1.93 2.372 1.22l-.581-.813a.5.5 0 0 1-.79-.407H6.299Zm18.296-5.575a3.5 3.5 0 0 1-3.5 3.5v1a4.5 4.5 0 0 0 4.5-4.5h-1ZM20.17 11.63h-8.444v1h8.444v-1Zm-2.814 4.222h-5.63v1h5.63v-1Z" fill="#000"/></svg>
